docs/.gitbook/assets/icon-trash-16@dark.svg

<svg width="32" height="32" viewBox="0 0 16 16" fill="none" xmlns="http://www.w3.org/2000/svg">
<rect x="0" y="0" width="16" height="16" fill="#181c1f"/>
<path fill-rule="evenodd" clip-rule="evenodd" d="M7.36216 3.00512H8.66404C8.6314 2.89213 8.5915 2.80436 8.54799 2.73873C8.47227 2.62451 8.34977 2.51343 8 2.51343C7.73921 2.51343 7.59409 2.6067 7.48702 2.75785C7.44134 2.82233 7.39851 2.90453 7.36216 3.00512ZM10.1963 3.00512C10.1352 2.61522 10.0147 2.2365 9.79824 1.90995C9.40602 1.31828 8.77853 1.01343 8 1.01343C7.26079 1.01343 6.65591 1.33609 6.26298 1.89083C6.03213 2.21674 5.88964 2.59968 5.81513 3.00512H2.83843C2.78136 2.9984 2.7226 2.99817 2.66304 3.00512H1.75C1.33579 3.00512 1 3.34091 1 3.75512C1 4.16934 1.33579 4.50512 1.75 4.50512H2.08459L3.04531 12.5752C3.20999 13.9584 4.38299 15.0001 5.77603 15.0001H10.224C11.617 15.0001 12.79 13.9584 12.9547 12.5752L13.9154 4.50512H14.25C14.6642 4.50512 15 4.16934 15 3.75512C15 3.34091 14.6642 3.00512 14.25 3.00512H13.337C13.2774 2.99817 13.2186 2.9984 13.1616 3.00512H10.1963ZM12.4048 4.50512H9.5H6.5H3.59518L4.53479 12.3978C4.60964 13.0266 5.14283 13.5001 5.77603 13.5001H10.224C10.8572 13.5001 11.3904 13.0266 11.4652 12.3978L12.4048 4.50512ZM6.5 6.25006C6.91421 6.25006 7.25 6.58585 7.25 7.00006V11.0001C7.25 11.4143 6.91421 11.7501 6.5 11.7501C6.08579 11.7501 5.75 11.4143 5.75 11.0001V7.00006C5.75 6.58585 6.08579 6.25006 6.5 6.25006ZM9.5 6.25006C9.91421 6.25006 10.25 6.58585 10.25 7.00006V11.0001C10.25 11.4143 9.91421 11.7501 9.5 11.7501C9.08579 11.7501 8.75 11.4143 8.75 11.0001V7.00006C8.75 6.58585 9.08579 6.25006 9.5 6.25006Z" fill="#fff"/>
</svg>

<svg xmlns="http://www.w3.org/2000/svg" width="32" height="32" fill="none" viewBox="0 0 16 16"><path fill="#181c1f" d="M0 0h16v16H0z"/><path fill="#fff" fill-rule="evenodd" d="M7.362 3.005h1.302a1 1 0 0 0-.116-.266c-.076-.114-.198-.226-.548-.226-.26 0-.406.094-.513.245a1 1 0 0 0-.125.247m2.834 0a2.7 2.7 0 0 0-.398-1.095c-.392-.592-1.02-.897-1.798-.897-.74 0-1.344.323-1.737.878-.23.326-.373.709-.448 1.114H2.838a1 1 0 0 0-.175 0H1.75a.75.75 0 0 0 0 1.5h.335l.96 8.07A2.75 2.75 0 0 0 5.776 15h4.448a2.75 2.75 0 0 0 2.73-2.425l.961-8.07h.335a.75.75 0 0 0 0-1.5h-.913a1 1 0 0 0-.175 0zm2.209 1.5h-8.81l.94 7.893A1.25 1.25 0 0 0 5.776 13.5h4.448a1.25 1.25 0 0 0 1.241-1.102zM6.5 6.25a.75.75 0 0 1 .75.75v4a.75.75 0 0 1-1.5 0V7a.75.75 0 0 1 .75-.75m3 0a.75.75 0 0 1 .75.75v4a.75.75 0 0 1-1.5 0V7a.75.75 0 0 1 .75-.75" clip-rule="evenodd"/></svg>
